src/assets/img/svg_sources/icon-service-strategy.svg

<svg width="42" height="42" viewBox="0 0 42 42" fill="none" xmlns="http://www.w3.org/2000/svg">
<path fill-rule="evenodd" clip-rule="evenodd" d="M33 15L36 8V0H28V3H25V0H17V3H14V0H6V8L9 15V28L6 35.5V42H36V35L33 28V15ZM31 20V16H11V20H31ZM31 22H11V28.3852L8 35.8852V40H34V35.4105L31 28.4105V22ZM34 7.58949L31.2526 14H10.7474L8 7.58948V2H12V5H19V2H23V5H30V2H34V7.58949Z" fill="#C7A21E"/>
</svg>

<svg width="42" height="42" viewBox="0 0 42 42" fill="none" xmlns="http://www.w3.org/2000/svg"><path fill-rule="evenodd" clip-rule="evenodd" d="M33 15l3-7V0h-8v3h-3V0h-8v3h-3V0H6v8l3 7v13l-3 7.5V42h30v-7l-3-7V15zm-2 5v-4H11v4h20zm0 2H11v6.385l-3 7.5V40h26v-4.59l-3-7V22zm3-14.41L31.253 14H10.747L8 7.59V2h4v3h7V2h4v3h7V2h4v5.59z" fill="#C7A21E"/></svg>
